img/youtube.svg

<svg width="32" height="33" fill="none" xmlns="http://www.w3.org/2000/svg"><path d="m18.6 16.5-4.2-2.4v4.8l4.2-2.4z" fill="#C0B7E8"/><path fill-rule="evenodd" clip-rule="evenodd" d="M0 16.5C0 7.663 7.163.5 16 .5s16 7.163 16 16-7.163 16-16 16-16-7.163-16-16zm22.2-5.3c.7.2 1.2.7 1.4 1.4.4 1.3.4 3.9.4 3.9s0 2.6-.3 3.9c-.2.7-.7 1.2-1.4 1.4-1.3.3-6.3.3-6.3.3s-5.1 0-6.3-.3c-.7-.2-1.2-.7-1.4-1.4-.3-1.3-.3-3.9-.3-3.9s0-2.6.2-3.9c.2-.7.7-1.2 1.4-1.4 1.3-.3 6.3-.3 6.3-.3s5.1 0 6.3.3z" fill="#C0B7E8"/></svg>

<svg width="32" height="33" viewBox="0 0 32 33" fill="none" xmlns="http://www.w3.org/2000/svg">
<path d="M18.6 16.5L14.4 14.1V18.9L18.6 16.5Z" fill="#C0B7E8"/>
<path fill-rule="evenodd" clip-rule="evenodd" d="M0 16.5C0 7.66344 7.16344 0.5 16 0.5C24.8366 0.5 32 7.66344 32 16.5C32 25.3366 24.8366 32.5 16 32.5C7.16344 32.5 0 25.3366 0 16.5ZM22.2 11.2C22.9 11.4 23.4 11.9 23.6 12.6C24 13.9 24 16.5 24 16.5C24 16.5 24 19.1 23.7 20.4C23.5 21.1 23 21.6 22.3 21.8C21 22.1 16 22.1 16 22.1C16 22.1 10.9 22.1 9.7 21.8C9 21.6 8.5 21.1 8.3 20.4C8 19.1 8 16.5 8 16.5C8 16.5 8 13.9 8.2 12.6C8.4 11.9 8.90001 11.4 9.60001 11.2C10.9 10.9 15.9 10.9 15.9 10.9C15.9 10.9 21 10.9 22.2 11.2Z" fill="#C0B7E8"/>
</svg>
